X:28
T:Paddy on the Landfill
M:2/2
L:1/8
K:Gm
"Gm"GABd g2 fg|"F"agfa "Gm"g2 g=e|"F"f2 af bfaf|"Bb"bagf "F"gfdf|
"Eb"g2 bg agbg|"F"f2 af bfaf|"Gm"bagf "Eb"dfga|"F"bc'ab "Gm"g4:|:
"Gm"g2 dg fgdg|g2 dg "F"fdcd|"Gm"g2 dg fgdg|"Eb"gabg "F"agfd|
"Gm"g2 dg fgdg|g2 dg "F"fdcA|"Gm"BAGF "Eb"DFGA|"F"BcAB "Gm"G4:|
